public/assets/icon1.svg

<svg width="32" height="32" viewBox="0 0 32 32" fill="none" xmlns="http://www.w3.org/2000/svg">
<path d="M25 18L23.5859 19.4141L26.1672 22H18C16.9391 22 15.9217 22.4214 15.1716 23.1716C14.4214 23.9217 14 24.9391 14 26C14 27.0609 14.4214 28.0783 15.1716 28.8284C15.9217 29.5786 16.9391 30 18 30H20V28H18C17.4696 28 16.9609 27.7893 16.5858 27.4142C16.2107 27.0391 16 26.5304 16 26C16 25.4696 16.2107 24.9609 16.5858 24.5858C16.9609 24.2107 17.4696 24 18 24H26.1672L23.5845 26.5874L25 28L30 23L25 18Z" fill="white"/>
<path d="M10 22H4L3.9966 6.9064L15.4307 14.8223C15.598 14.938 15.7966 15 16 15C16.2034 15 16.402 14.938 16.5693 14.8223L28 6.9086V16H30V6C29.9993 5.46977 29.7884 4.96145 29.4135 4.58652C29.0386 4.21159 28.5302 4.00066 28 4H4C3.47017 4 2.96199 4.21023 2.58702 4.58455C2.21205 4.95886 2.00093 5.46667 2 5.9965V22C2.00069 22.5302 2.21162 23.0385 2.58655 23.4135C2.96147 23.7884 3.46978 23.9993 4 24H10V22ZM25.7986 6L16 12.7837L6.2014 6H25.7986Z" fill="white"/>
</svg>

<svg xmlns="http://www.w3.org/2000/svg" width="32" height="32" fill="#fff" xmlns:v="https://vecta.io/nano"><path d="M25 18l-1.414 1.414L26.167 22H18a4 4 0 1 0 0 8h2v-2h-2a2 2 0 1 1 0-4h8.167l-2.583 2.587L25 28l5-5-5-5zm-15 4H4L3.997 6.906l11.434 7.916a1 1 0 0 0 1.139 0L28 6.909V16h2V6a2 2 0 0 0-.587-1.413A2.01 2.01 0 0 0 28 4H4a2 2 0 0 0-2 1.997V22c.001.53.212 1.038.587 1.413S3.47 23.999 4 24h6v-2zM25.799 6L16 12.784 6.201 6h19.597z"/></svg>
